icons/present-two-color.svg

<?xml version="1.0" encoding="UTF-8"?><svg xmlns="http://www.w3.org/2000/svg" viewBox="0 0 50 50"><g id="uuid-be5d8c7d-9ede-45c7-b91a-de3c84a89f57"><g><path d="M40.97,14.13h-13.24v4.25h-6.2v-4.25H9.27v6h2.51v10.65h9.83v4.02H11.78v13.14h29.19V20.13h2.51v-6h-2.51Zm-14.33,32.06h-4.02V19.38h4.02v26.81Zm12.61-11.39h-11.61v-4.02h11.61v4.02Z" fill="#ffcd00"/><path d="M42.23,11.38h-15.27c2.31-.64,5.63-2.04,6.48-4.92,.18-.6,.67-2.66-.51-3.76-1.23-1.15-3.35-.44-3.97-.19-2.68,1.06-3.84,4.17-4.33,6.44-.5-2.27-1.65-5.38-4.33-6.44-.62-.25-2.74-.96-3.97,.19-1.18,1.11-.69,3.16-.51,3.76,.85,2.88,4.17,4.28,6.48,4.92H7.02c-.28,0-.5,.22-.5,.5v7c0,.28,.22,.5,.5,.5h2.01v27.31c0,.28,.22,.5,.5,.5h30.19c.28,0,.5-.22,.5-.5v-11.25s.03-.1,.03-.15v-5.02c0-.05-.01-.1-.03-.15v-10.75h2.01c.28,0,.5-.22,.5-.5v-7c0-.28-.22-.5-.5-.5Zm-3.01,8v10.4h-11.58v-10.4h11.58ZM29.33,3.43c.53-.21,1.18-.37,1.76-.37,.46,0,.88,.1,1.16,.36,.61,.57,.51,1.84,.23,2.75-.89,3.03-5.39,4.21-7.14,4.56,.22-1.73,1.05-6.14,3.99-7.3Zm-12.55,2.74c-.27-.91-.37-2.18,.23-2.75,.28-.26,.7-.37,1.16-.37,.58,0,1.23,.16,1.76,.37,2.94,1.16,3.77,5.57,3.99,7.3-1.75-.35-6.25-1.52-7.14-4.56ZM7.52,18.38v-6h13.01v6H7.52Zm14.1,27.81H10.03v-10.39h11.58v10.39Zm0-11.39H10.06v-4.02h11.55v4.02Zm0-5.02H10.03v-10.4h11.58v10.4Zm5.02,16.42h-4.02V19.38h4.02v26.81Zm-4.52-27.81h-.59v-6h6.2v6h-5.61Zm17.1,27.81h-11.58v-10.39h11.58v10.39Zm.03-11.39h-11.61v-4.02h11.61v4.02Zm2.48-16.42h-13.01v-6h13.01v6Z"/></g></g><g id="uuid-dfa83e1c-972a-4e75-a433-d89a3b837cbd"><text transform="translate(0 54.94)" font-family="Roboto-Regular, Roboto" font-size="6"><tspan x="0" y="0">p</tspan><tspan x="3.37" y="0" letter-spacing="0em">r</tspan><tspan x="5.34" y="0">esent</tspan></text></g></svg>

<svg xmlns="http://www.w3.org/2000/svg" viewBox="0 0 50 50"><g id="a926ba26-1943-4a18-abaf-46b0bb6308d8" data-name="ICONS"><path d="M41,14.13H27.73v4.25H21.52V14.13H9.27v6h2.51V30.77h9.83v4H11.78V47.94H41V20.13h2.51v-6ZM26.64,46.19h-4V19.38h4ZM39.25,34.8H27.64v-4H39.25Z" fill="#fdd600"/><path d="M42.23,11.38H27c2.31-.64,5.63-2,6.48-4.92.17-.6.67-2.66-.51-3.76s-3.35-.44-4-.2c-2.68,1.06-3.84,4.17-4.34,6.44C24.13,6.67,23,3.56,20.29,2.5c-.62-.24-2.74-.95-4,.2s-.68,3.16-.51,3.76c.85,2.88,4.17,4.28,6.48,4.92H7a.5.5,0,0,0-.5.5v7a.5.5,0,0,0,.5.5H9V46.69a.5.5,0,0,0,.5.5H39.72a.5.5,0,0,0,.5-.5V35.44a.58.58,0,0,0,0-.14v-5a.8.8,0,0,0,0-.15V19.38h2a.5.5,0,0,0,.5-.5v-7A.5.5,0,0,0,42.23,11.38Zm-3,8V29.77H27.64V19.38H39.22ZM29.33,3.43a5,5,0,0,1,1.76-.37,1.63,1.63,0,0,1,1.15.37c.61.57.51,1.83.24,2.75-.9,3-5.39,4.21-7.15,4.55C25.55,9,26.38,4.59,29.33,3.43ZM16.77,6.18C16.5,5.26,16.4,4,17,3.43a1.63,1.63,0,0,1,1.15-.37,5,5,0,0,1,1.76.37c2.95,1.16,3.78,5.57,4,7.3C22.16,10.39,17.67,9.21,16.77,6.18ZM7.52,18.38v-6h13v6h-13ZM21.61,46.19H10V35.8H21.61Zm0-11.39H10.06v-4H21.61Zm0-5H10V19.38H21.61Zm5,16.42h-4V19.38h4ZM22.11,18.38h-.59v-6h6.21v6H22.11ZM39.22,46.19H27.64V35.8H39.22Zm0-11.39H27.64v-4H39.25Zm2.48-16.42h-13v-6h13Z" fill="#231f20"/></g><g id="eb4e9b95-b72c-422a-a98a-86a006a19d2a" data-name="LABELS"><text transform="translate(0 54.94)" font-size="6" fill="#231f20" font-family="Roboto-Regular, Roboto">p<tspan x="3.37" y="0" letter-spacing="-0.01em">r</tspan><tspan x="5.34" y="0">esent</tspan></text></g></svg>
